X:69
T:Leather Lane's Favourite. JJo3.069
Z:vmp.Ruairidh Greig 2014 www.village-music-project.org.uk
B:J.Johnson Choice Collection Vol 3 1744
M:6/8
L:1/8
Q:3/8=100
N:First strain twice, last but once
K:A
e|c>BA e>fg|a>ecA2f|e>dc B>cd|G>AFE2e|
(^d/e/f)^d B>e^d|e>BG E3||e|f>edd2a|g>fee2g|
a>gff2d'|g3-g2e|f>ga g>ab|a>bc'b2e|
f>ga B>ag|a>ecA2f|G>Be F>Ad|E>Gc c>BA|
G>AB E>AG|A>ECA,2|]

